X: 401
T:Parfons regretz
N: Derived from Jos2919-Parfons_regretz.krn
C: Josquin des Prez
%%abc-version 2.0
%%abcx-abcm2ps-target-version 5.9.1 (29 Sep 2008)
%%abc-creator hum2abc beta
%%abcx-conversion-date 2019/02/12 16:15:55
%%abc-edited-by Jesse Rodin
%%abc-edited-by Will Watson 09/12/2011
%%abcx-initial-encoding-date 2011/12/09/
%%humdrum-veritas 704151324
%%humdrum-veritas-data 2330604367
%%linebreak <none>
%%barnumbers 0
L: 1/4
M: 2/1
Q: 1/2=120
V: 1 clef=treble
V: 2 clef=treble-8
V: 3 clef=treble-8
V: 4 clef=treble-8
V: 5 clef=bass
K: F
[V:1] z8 | 
[V:2] g8 | 
[V:3] z8 | 
[V:4] G8 | 
[V:5] z8 | 
[V:1] z8 | 
[V:2] f6ed | 
[V:3] z8 | 
[V:4] d4d4 | 
[V:5] z8 | 
[V:1] G8 | 
[V:2] e4e4 | 
[V:3] z8 | 
[V:4] c6B2 | 
[V:5] z8 | 
[V:1] d4d4 | 
[V:2] d8 | 
[V:3] z8 | 
[V:4] G4G4 | 
[V:5] z8 | 
[V:1] c6B2 | 
[V:2] z4f4 | 
[V:3] z8 | 
[V:4] A4A4 | 
[V:5] z8 | 
[V:1] G8 | 
[V:2] e4e4 | 
[V:3] z8 | 
[V:4] c4c4 | 
[V:5] z8 | 
[V:1] z4G4 | 
[V:2] d8 | 
[V:3] z8 | 
[V:4] B2G2B4 | 
[V:5] G,,8 | 
[V:1] A6B2 | 
[V:2] z4f4 | 
[V:3] z8 | 
[V:4] A8 | 
[V:5] D,4D,4 | 
[V:1] c4c4 | 
[V:2] e4e4 | 
[V:3] z8 | 
[V:4] z8 | 
[V:5] C,6B,,2 | 
[V:1] B6AG | 
[V:2] d2g2g2g2 | 
[V:3] G8 | 
[V:4] z4G4 | 
[V:5] G,,8 | 
[V:1] A2A2B2B2 | 
[V:2] f4g4 | 
[V:3] d4d4 | 
[V:4] D4G4 | 
[V:5] z4G,,4 | 
[V:1] c2A2c4- | 
[V:2] e3dc4 | 
[V:3] c6B2 | 
[V:4] C4C4 | 
[V:5] A,,6B,,2 | 
[V:1] c2B2G4 | 
[V:2] z4c4 | 
[V:3] G8 | 
[V:4] _E8 | 
[V:5] C,4C,4 | 
[V:1] z2B2B2B2 | 
[V:2] d4d4 | 
[V:3] z4G4 | 
[V:4] D4z2D2 | 
[V:5] B,,2G,,2B,,4 | 
[V:1] c2A2c4- | 
[V:2] c4c4 | 
[V:3] A6B2 | 
[V:4] F4E4 | 
[V:5] A,,8 | 
[V:1] c2B2G3A | 
[V:2] _e8 | 
[V:3] c4c4 | 
[V:4] C4C4 | 
[V:5] z8 | 
[V:1] BcB4AG | 
[V:2] d4z2d2 | 
[V:3] B2G2B4 | 
[V:4] G8 | 
[V:5] G,,8 | 
[V:1] A4z2A2 | 
[V:2] f4z2d2 | 
[V:3] A8 | 
[V:4] F4z2F2 | 
[V:5] D,4D,4 | 
[V:1] c4c4 | 
[V:2] e4e4 | 
[V:3] z8 | 
[V:4] G4E3F | 
[V:5] C,6B,,2 | 
[V:1] B8 | 
[V:2] d2g2g2g2 | 
[V:3] G8 | 
[V:4] G4z2G2 | 
[V:5] G,,8 | 
[V:1] z2A2B2B2 | 
[V:2] f4g4 | 
[V:3] d4d4 | 
[V:4] D4G4 | 
[V:5] z4G,,4 | 
[V:1] c2A2c4- | 
[V:2] e3dc4 | 
[V:3] c6B2 | 
[V:4] C4C4 | 
[V:5] A,,6B,,2 | 
[V:1] c2B2G4 | 
[V:2] z4c4 | 
[V:3] G8 | 
[V:4] _E8 | 
[V:5] C,4C,4 | 
[V:1] z2B2B2B2 | 
[V:2] d4d4 | 
[V:3] z4G4 | 
[V:4] D4z2D2 | 
[V:5] B,,2G,,2B,,4 | 
[V:1] c2A2c4- | 
[V:2] c4c4 | 
[V:3] A6B2 | 
[V:4] F4E4 | 
[V:5] A,,8 | 
[V:1] c2B2G3A | 
[V:2] _e8 | 
[V:3] c4c4 | 
[V:4] C4C4 | 
[V:5] z8 | 
[V:1] BcB4AG | 
[V:2] d8 | 
[V:3] B2G2B4 | 
[V:4] G8 | 
[V:5] z8 | 
[V:1] A4z2A2 | 
[V:2] z4f4 | 
[V:3] A8 | 
[V:4] F8 | 
[V:5] D,8 | 
[V:1] B4B4 | 
[V:2] g4d3e | 
[V:3] z8 | 
[V:4] z4B3c | 
[V:5] G,4G,4 | 
[V:1] A8 | 
[V:2] f8 | 
[V:3] z8 | 
[V:4] d2c4BA | 
[V:5] F,4F,4 | 
[V:1] z8 | 
[V:2] z2B2A2GA | 
[V:3] d8 | 
[V:4] B2G2A2B2- | 
[V:5] G,4F,2G,2- | 
[V:1] z8 | 
[V:2] Bcd3^c^c=B | 
[V:3] g4g4 | 
[V:4] BAGFG4 | 
[V:5] G,F,E,D,E,2E,2 | 
[V:1] z4A4 | 
[V:2] d8 | 
[V:3] f4f4 | 
[V:4] A8 | 
[V:5] D,8 | 
[V:1] B4A2B2- | 
[V:2] z8 | 
[V:3] g4f2g2- | 
[V:4] z2G2d2B2 | 
[V:5] z8 | 
[V:1] Bcd3^cc=B | 
[V:2] z8 | 
[V:3] gfede2e2 | 
[V:4] G3BA4 | 
[V:5] z8 | 
[V:1] d4z2A2 | 
[V:2] z4f4 | 
[V:3] d8 | 
[V:4] D4d4- | 
[V:5] D,8 | 
[V:1] B4B4 | 
[V:2] g4d3e | 
[V:3] z8 | 
[V:4] d4B4 | 
[V:5] G,4G,4 | 
[V:1] A8 | 
[V:2] f8 | 
[V:3] z8 | 
[V:4] c4A4 | 
[V:5] F,4F,4 | 
[V:1] z8 | 
[V:2] z2B2A2GA | 
[V:3] d8 | 
[V:4] B2G2A2B2- | 
[V:5] G,4F,2G,2- | 
[V:1] z8 | 
[V:2] Bcd3^c^c=B | 
[V:3] g4g4 | 
[V:4] BAGFG4 | 
[V:5] G,F,E,D,E,2E,2 | 
[V:1] z4A4 | 
[V:2] d8 | 
[V:3] f4f4 | 
[V:4] A8 | 
[V:5] D,8 | 
[V:1] B4A2B2- | 
[V:2] z8 | 
[V:3] g4f2g2- | 
[V:4] z2G2d2B2 | 
[V:5] z8 | 
[V:1] Bcd4^c2 | 
[V:2] z8 | 
[V:3] gfede2e2 | 
[V:4] G3BA4 | 
[V:5] z8 | 
[V:1] d4z2A2 | 
[V:2] z8 | 
[V:3] d8 | 
[V:4] D8 | 
[V:5] z4F,4 | 
[V:1] B4B4 | 
[V:2] z8 | 
[V:3] z8 | 
[V:4] z4d4 | 
[V:5] G,4G,4 | 
[V:1] A4c4 | 
[V:2] z8 | 
[V:3] z8 | 
[V:4] f4e4 | 
[V:5] A,4A,4 | 
[V:1] d6c2 | 
[V:2] z4d4 | 
[V:3] z4f4 | 
[V:4] d8 | 
[V:5] B,6A,2 | 
[V:1] B2A2G4 | 
[V:2] d4e4 | 
[V:3] g4g4 | 
[V:4] z8 | 
[V:5] G,2F,2E,4 | 
[V:1] F8 | 
[V:2] f4z2f2 | 
[V:3] a4a4 | 
[V:4] z4d4 | 
[V:5] D,8 | 
[V:1] z8 | 
[V:2] g4z2f2 | 
[V:3] b6a2 | 
[V:4] G4G2AB | 
[V:5] z8 | 
[V:1] z8 | 
[V:2] e2d2^c4 | 
[V:3] g2f2e4 | 
[V:4] c2d2A4 | 
[V:5] z8 | 
[V:1] z8 | 
[V:2] d4z2d2 | 
[V:3] d8 | 
[V:4] D8 | 
[V:5] B,,8 | 
[V:1] z8 | 
[V:2] e4e4 | 
[V:3] z8 | 
[V:4] z4G4 | 
[V:5] C,4C,4 | 
[V:1] z8 | 
[V:2] d4f4 | 
[V:3] z8 | 
[V:4] B4A4 | 
[V:5] D,4D,4 | 
[V:1] z4G4 | 
[V:2] g6f2 | 
[V:3] B8 | 
[V:4] G8 | 
[V:5] _E,6D,2 | 
[V:1] G4A4 | 
[V:2] _e2d2c4 | 
[V:3] c4c4 | 
[V:4] z8 | 
[V:5] C,2B,,2A,,4 | 
[V:1] B4B4 | 
[V:2] B8 | 
[V:3] d4d4 | 
[V:4] z4G4 | 
[V:5] G,,8 | 
[V:1] c6B2 | 
[V:2] z8 | 
[V:3] _e6d2 | 
[V:4] g6f2 | 
[V:5] z8 | 
[V:1] A2G2^FGAF | 
[V:2] z8 | 
[V:3] c2B2A4 | 
[V:4] _e2d2c4 | 
[V:5] z8 | 
[V:1] G8 | 
[V:2] z4B4 | 
[V:3] G8- | 
[V:4] d4z2d2 | 
[V:5] z4G,,4 | 
[V:1] z4G4 | 
[V:2] c4c4 | 
[V:3] G8- | 
[V:4] _e4_e4 | 
[V:5] C,4C,4 | 
[V:1] B4B4 | 
[V:2] B4z2B2 | 
[V:3] G8- | 
[V:4] d4z2d2 | 
[V:5] G,,4z2G,,2 | 
[V:1] G4z2G2 | 
[V:2] c6c2 | 
[V:3] G8- | 
[V:4] _e6_e2 | 
[V:5] C,6C,2 | 
[V:1] B2B2G2G2 | 
[V:2] d2B2c4 | 
[V:3] G8- | 
[V:4] d2d2_e4 | 
[V:5] B,,2G,,2C,3B,, | 
[V:1] B6G2 | 
[V:2] B8- | 
[V:3] G8- | 
[V:4] d8- | 
[V:5] G,,8- | 
[V:1] G8 |]  
[V:2] B8 |]  
[V:3] G8 |]  
[V:4] d8 |]  
[V:5] G,,8 |]  



